X:1
T:John Brosnan's Reel
Z:Aidan Swanton  irtrad-l 2000-22-24
M:C|
R:Reel
K:Bm
| FB ~B2 FBde | f2 ef dcBA |1 FAAA FAEA | FA ~A2 fAeA :|
|2 f2 ef dfcf | FBBA B2 Ae || fBBA Bcde | fBbf afea |
|1 fBBB fBdf | eAce ABce :|2 f2 ef dfcf | FBBA B2 Ae ||
